X:743
T:Morrison's jig
R:Jig
O:Ireland
S:My arrangement from various sources
Z:Transcription, arrangement, chords:Mike Long
M:6/8
L:1/8
K:D
"Em"~E3 ~B3|"Em"EBE "D"AFD|"Em"E2E B2c|"G"dcB "D"AFD|\
"Em"~E3 ~B3|"Em"EBE "D"AFD|"G"G2G FGA|"D"dAG FED:|
"Em"Bee fee|"Em"aee "D"fee|"Em"Bee fee|"C"a2g "D"fed|\
"Em"Bee fee|"Em"aee "D"fef|"C"gfe d2A|"D"BAG FED|
"Em"Bee fee|"Em"aee "D"fee|"Em"Bee fee|"D"faf def|\
"G"g2g gfe|"D"def g2d|"G"edc d2A|"D"BAG FED|]
